docs/assets/img/show-password.svg

<svg width="20" height="16" viewBox="0 0 20 16" fill="none" xmlns="http://www.w3.org/2000/svg">
<path d="M4.70933 2.89903C6.09369 1.82092 7.86868 0.999986 9.99991 0.999986C12.5249 0.999986 14.5467 2.15123 16.0186 3.51871C17.4811 4.87495 18.4592 6.47181 18.9217 7.61555C19.0248 7.86243 19.0248 8.13743 18.9217 8.3843C18.503 9.39366 17.6623 10.8155 16.4249 12.0843L19.7123 14.6592C20.0373 14.9155 20.0967 15.3874 19.8405 15.7124C19.5842 16.0374 19.1123 16.0967 18.7873 15.8405L0.287367 1.3403C-0.0386303 1.08467 -0.0957861 0.613427 0.159743 0.287367C0.415303 -0.0386303 0.886549 -0.0957861 1.2128 0.159743L4.70933 2.89903ZM6.97181 4.67183L9.79366 6.88431C9.92491 6.61869 9.99991 6.31869 9.99991 5.97182C9.99991 5.64057 9.87804 5.30307 9.73741 5.01245C9.82491 5.00308 9.91241 4.97183 9.99991 4.97183C11.6561 4.97183 12.9999 6.31557 12.9999 7.9718C12.9999 8.42805 12.9093 8.83429 12.7218 9.20304L13.9561 10.1468C14.303 9.50929 14.4999 8.77805 14.4999 7.9718C14.4999 5.51557 12.4843 3.47184 9.99991 3.47184C8.83429 3.47184 7.76868 3.94371 6.97181 4.67183ZM9.99991 14.9999C7.47493 14.9999 5.45307 13.8499 3.98121 12.4811C2.51935 11.0968 1.54186 9.49991 1.07686 8.3843C0.974361 8.13743 0.974361 7.86243 1.07686 7.61555C1.37498 6.89994 1.88404 5.97494 2.59653 5.04683L5.5437 7.36868C5.51557 7.57493 5.49995 7.7843 5.49995 7.9718C5.49995 10.4843 7.51556 12.4999 9.99991 12.4999C10.5843 12.4999 11.1436 12.3874 11.6561 12.1843L13.9436 13.9843C12.8093 14.5967 11.4936 14.9999 9.99991 14.9999Z" fill="#2C3D73"/>
</svg>

<svg width="20" height="16" fill="none" xmlns="http://www.w3.org/2000/svg"><path d="M4.71 2.899C6.093 1.821 7.868 1 10 1c2.525 0 4.547 1.151 6.019 2.519 1.462 1.356 2.44 2.953 2.903 4.097a.994.994 0 010 .768c-.419 1.01-1.26 2.431-2.497 3.7l3.287 2.575a.75.75 0 01-.925 1.181L.287 1.34A.75.75 0 111.213.16l3.496 2.739zm2.262 1.773l2.822 2.212c.13-.265.206-.565.206-.912 0-.331-.122-.669-.263-.96.088-.009.175-.04.263-.04a3 3 0 013 3c0 .456-.09.862-.278 1.231l1.234.944a4.506 4.506 0 00.544-2.175c0-2.456-2.016-4.5-4.5-4.5-1.166 0-2.231.472-3.028 1.2zM10 15c-2.525 0-4.547-1.15-6.019-2.519C2.52 11.097 1.541 9.5 1.077 8.384a1 1 0 010-.768c.298-.716.807-1.641 1.52-2.57L5.544 7.37a4.567 4.567 0 00-.044.603c0 2.512 2.016 4.528 4.5 4.528.584 0 1.144-.113 1.656-.316l2.288 1.8A8.215 8.215 0 0110 15z" fill="#2C3D73"/></svg>
